X: 124
T: No_59_I_Came_from_the_East.krn
N: Derived from No_59_I_Came_from_the_East.krn
%%abc-version 2.0
%%abcx-abcm2ps-target-version 5.9.1 (29 Sep 2008)
%%abc-creator hum2abc beta
%%abcx-conversion-date 2019/03/15 08:37:56
%%humdrum-veritas 1156211220
%%humdrum-veritas-data 604099878
%%linebreak <none>
%%barnumbers 0
L: 1/4
M: 2/4
K: B clef=bass
[K:clef=bass][M:2/4]G,G, | 
CC ||  
[M:3/4]B,2G, ||  
[M:2/4]F,z | 
CC | 
CB, | 
G,2 | 
F,3/D,/ | 
G,G,/D,/ ||  
[M:3/4]F,F,D, ||  
[M:2/4]C,z ]|:  
B,3/G,/ | 
CC | 
B,3/G,/ | 
B,B, | 
G,3/F,/ | 
G,G,/D,/ ||  
[M:3/4]F,F,D, ||  
[M:2/4]C,z | 
G,3//G,//G, | 
F,F,/D,/ ||  
[M:3/4]F,2F, | 
F,3 :|]  



